X: 0116
T: the Gathering - 8x32R
P: the Rendezvous
C: traditional
B: Miss Milligan's Miscellany v.1 #0116
B: Originally Ours v.1 p.173 #MMM-0116
Z: 2020 John Chambers <jc:trillian.mit.edu>
M: 4/4
L: 1/8
R: reel
K: G
%
B |:\
"G"G2GD "B/G"B,DGF | "A7"EAAG "D"FGAB |\
"B/G"G2GD "G"B,DGF | "C"EG"D7"FA "G"BGGB |\
"G"G2GD "B/G"B,DGF | "C#/A7"EAAG "D7"FGAB |
"B/G"G2GD "G"B,DGF | "C"EG"D7"FA "G"BGGc ||\
[1 "G"B/c/d dg "D/G"Bdgd | "A"^c/d/e ea "E/A"ceae |\
   "G"B/c/d dg "D/G"Bdgd | "C"eg"D7"dg "G"BGGc |
   "G"B/c/d dg "D/G"Bdgd | "A"^c/d/e ea "E/A"ceae |\
   "G"B/c/d dg "D/G"Bdgd | "C"eg"D7"dg "G"BGGB :|\
[2 "G"B/c/d dg "D/G"Bdgd | "A"^c/d/e ea "E/A"ceae |
   "G"B/c/d dg "D/G"Bdgd | "C"eg"D7"dg "G"BGGc |\
   "G"B/c/d dg "D/G"Bdgd | "A"^c/d/e ea "E/A"ceae |\
   "G"dg fa "D/G"gdBG | "C"EG"D7"FA "G"BGG2 |]
